src/renderer/assets/svg/icon-lock-warning.svg

<svg id="lock_icon" width="31" height="30" viewBox="0 0 31 30" fill="none" xmlns="http://www.w3.org/2000/svg">
<circle cx="15.5" cy="15" r="15" fill="#F3BA2F"/>
<g clip-path="url(#clip0)">
<path d="M20.0063 13.1494H19.6268V11.6268C19.6268 10.5323 19.192 9.48261 18.4181 8.7087C17.6441 7.93478 16.5945 7.5 15.5 7.5C14.4055 7.5 13.3559 7.93478 12.582 8.7087C11.808 9.48261 11.3733 10.5323 11.3733 11.6268V13.1494H10.9937C10.4993 13.1501 10.0254 13.3469 9.67589 13.6966C9.32638 14.0463 9.12982 14.5203 9.12933 15.0147V20.6338C9.12982 21.1281 9.32641 21.602 9.67594 21.9515C10.0255 22.3011 10.4994 22.4977 10.9937 22.4982H20.0063C20.5006 22.4977 20.9745 22.3011 21.3241 21.9515C21.6736 21.602 21.8702 21.1281 21.8707 20.6338V15.0147C21.8702 14.5203 21.6736 14.0463 21.3241 13.6966C20.9746 13.3469 20.5007 13.1501 20.0063 13.1494V13.1494ZM12.6785 11.6268C12.6785 10.8784 12.9758 10.1608 13.5049 9.63166C14.034 9.10253 14.7517 8.80527 15.5 8.80527C16.2483 8.80527 16.966 9.10253 17.4951 9.63166C18.0242 10.1608 18.3215 10.8784 18.3215 11.6268V13.1494H12.6785V11.6268ZM20.5654 20.6356C20.5654 20.7839 20.5065 20.9261 20.4016 21.031C20.2968 21.1358 20.1546 21.1947 20.0063 21.1947H10.9937C10.9203 21.1947 10.8476 21.1803 10.7798 21.1522C10.7119 21.1241 10.6503 21.0829 10.5984 21.031C10.5464 20.979 10.5053 20.9174 10.4772 20.8496C10.4491 20.7817 10.4346 20.709 10.4346 20.6356V15.0166C10.4346 14.8682 10.4935 14.7259 10.5983 14.6209C10.7031 14.5159 10.8454 14.4568 10.9937 14.4565H20.0063C20.1546 14.4568 20.2969 14.5159 20.4017 14.6209C20.5065 14.7259 20.5654 14.8682 20.5654 15.0166V20.6356Z" fill="white"/>
<path d="M15.5 16.6831C15.3517 16.6831 15.2095 16.742 15.1046 16.8469C14.9998 16.9517 14.9409 17.094 14.9409 17.2422V18.4084C14.9409 18.5567 14.9998 18.6989 15.1046 18.8038C15.2095 18.9086 15.3517 18.9676 15.5 18.9676C15.6483 18.9676 15.7905 18.9086 15.8954 18.8038C16.0002 18.6989 16.0591 18.5567 16.0591 18.4084V17.2422C16.0591 17.094 16.0002 16.9517 15.8954 16.8469C15.7905 16.742 15.6483 16.6831 15.5 16.6831V16.6831Z" fill="white"/>
</g>
<defs>
<clipPath id="clip0">
<rect width="15" height="15" fill="white" transform="translate(8 7.5)"/>
</clipPath>
</defs>
</svg>

<svg xmlns="http://www.w3.org/2000/svg" width="31" height="30" fill="none" viewBox="0 0 31 30"><circle cx="15.5" cy="15" r="15" fill="#F3BA2F"/><g fill="#fff" clip-path="url(#a)"><path d="M20.006 13.15h-.38v-1.523a4.127 4.127 0 0 0-8.253 0v1.522h-.38a1.867 1.867 0 0 0-1.864 1.866v5.619a1.866 1.866 0 0 0 1.865 1.864h9.012a1.866 1.866 0 0 0 1.865-1.864v-5.62a1.867 1.867 0 0 0-1.865-1.865m-7.328-1.523a2.822 2.822 0 1 1 5.643 0v1.522h-5.643zm7.887 9.009a.56.56 0 0 1-.559.559h-9.012a.559.559 0 0 1-.56-.56v-5.618a.56.56 0 0 1 .56-.56h9.012a.56.56 0 0 1 .56.56z"/><path d="M15.5 16.683a.56.56 0 0 0-.56.56v1.165a.56.56 0 0 0 1.12 0v-1.166a.56.56 0 0 0-.56-.559"/></g><defs><clipPath id="a"><path fill="#fff" d="M8 7.5h15v15H8z"/></clipPath></defs></svg>
